X: 34580
T: Rising Sun, The
R: reel
M: 4/4
K: Dmajor
dA A2 BAAA|(3Bcd eg fdec|dcdB AFFD|EGFE D2 Bc|
dA A2 BAFA|(3Bcd eg fdec|dcdB AFFD|EGFE D3 A|
defg afed|(3cBA eA fAeA|defg afbf|afef d3 c|
defg afed|(3cBA eA fAeA|defd efge|f2 af efge|

